X: 94
M: 6/4
L: 1/4
K: D
V: 1
d2d {g}Tf>ef | e2e {a}Tg>fg | fag fed | ced cBA |\
d2d {g}Tf>ef | e2e {a}Tg>fg | fba {a}T^g>fg | a3 A2 :|
|: a |\
a2a bab | g2g aga | f2f fed | ced cBA |\
d2d {g}Tf>ef | e2e {a}Tg>fg | fed {d}Tc>Bc | d3 D2 |]
V: 2 clef=bass middle=d
z |\
d3 d'3 | c'3 a3 | d'3 d3 | a3 A3 |\
d3 d'3 | c'3 c3 | d3 e3 | A3- A2 :|
|: z |\
d3 z3 | e3 c'3 | d'3 d3 | a3 A3 |\
d3 d'3 | c'3 a3 | d'2g a2A | d3 d2 |]

